svg/timer_sand_paused.svg

<svg xmlns="http://www.w3.org/2000/svg" viewBox="0 0 24 24"><path d="M22 6v12h-6l-4-4-4 4H2V6h6l4 4 4-4M7.5 16l4-4-4-4H4v8m8.5-4 4 4H20V8h-3.5m1.5 4v2h-.8l-2-2m-6.4 0-2 2H6v-2Z"/></svg>

<svg xmlns="http://www.w3.org/2000/svg" id="mdi-timer-sand-paused" viewBox="0 0 24 24"><path d="M22 6V18H16L12 14L8 18H2V6H8L12 10L16 6M7.5 16L11.5 12L7.5 8H4V16M12.5 12L16.5 16H20V8H16.5M18 12V14H17.2L15.2 12M8.8 12L6.8 14H6V12Z" /></svg>
